science/polynomial/desmos-graph.svg

<svg xmlns="http://www.w3.org/2000/svg" xmlns:xlink="http://www.w3.org/1999/xlink" width="800" height="800" version="1.1"><g transform="scale(2,2)"><g id="background-445c6cac"><rect width="400" height="400" x="0" y="0" fill="#fff" stroke="none" class="dcg-svg-background"/></g><g id="graphpaper-445c6cac"><g id="grid-445c6cac"><g><path fill="none" stroke="#000" stroke-miterlimit="10" stroke-opacity=".2" d="M 9.5 0 L 9.5 400" class="dcg-svg-minor-gridline" paint-order="fill stroke markers"/><path fill="none" stroke="#000" stroke-miterlimit="10" stroke-opacity=".2" d="M 85.5 0 L 85.5 400" class="dcg-svg-minor-gridline" paint-order="fill stroke markers"/><path fill="none" stroke="#000" stroke-miterlimit="10" stroke-opacity=".2" d="M 123.5 0 L 123.5 400" class="dcg-svg-minor-gridline" paint-order="fill stroke markers"/><path fill="none" stroke="#000" stroke-miterlimit="10" stroke-opacity=".2" d="M 161.5 0 L 161.5 400" class="dcg-svg-minor-gridline" paint-order="fill stroke markers"/><path fill="none" stroke="#000" stroke-miterlimit="10" stroke-opacity=".2" d="M 199.5 0 L 199.5 400" class="dcg-svg-minor-gridline" paint-order="fill stroke markers"/><path fill="none" stroke="#000" stroke-miterlimit="10" stroke-opacity=".2" d="M 237.5 0 L 237.5 400" class="dcg-svg-minor-gridline" paint-order="fill stroke markers"/><path fill="none" stroke="#000" stroke-miterlimit="10" stroke-opacity=".2" d="M 275.5 0 L 275.5 400" class="dcg-svg-minor-gridline" paint-order="fill stroke markers"/><path fill="none" stroke="#000" stroke-miterlimit="10" stroke-opacity=".2" d="M 313.5 0 L 313.5 400" class="dcg-svg-minor-gridline" paint-order="fill stroke markers"/><path fill="none" stroke="#000" stroke-miterlimit="10" stroke-opacity=".2" d="M 351.5 0 L 351.5 400" class="dcg-svg-minor-gridline" paint-order="fill stroke markers"/><path fill="none" stroke="#000" stroke-miterlimit="10" stroke-opacity=".2" d="M 389.5 0 L 389.5 400" class="dcg-svg-minor-gridline" paint-order="fill stroke markers"/><path fill="none" stroke="#000" stroke-miterlimit="10" stroke-opacity=".2" d="M 0 397.5 L 400 397.5" class="dcg-svg-minor-gridline" paint-order="fill stroke markers"/><path fill="none" stroke="#000" stroke-miterlimit="10" stroke-opacity=".2" d="M 0 359.5 L 400 359.5" class="dcg-svg-minor-gridline" paint-order="fill stroke markers"/><path fill="none" stroke="#000" stroke-miterlimit="10" stroke-opacity=".2" d="M 0 321.5 L 400 321.5" class="dcg-svg-minor-gridline" paint-order="fill stroke markers"/><path fill="none" stroke="#000" stroke-miterlimit="10" stroke-opacity=".2" d="M 0 283.5 L 400 283.5" class="dcg-svg-minor-gridline" paint-order="fill stroke markers"/><path fill="none" stroke="#000" stroke-miterlimit="10" stroke-opacity=".2" d="M 0 245.5 L 400 245.5" class="dcg-svg-minor-gridline" paint-order="fill stroke markers"/><path fill="none" stroke="#000" stroke-miterlimit="10" stroke-opacity=".2" d="M 0 169.5 L 400 169.5" class="dcg-svg-minor-gridline" paint-order="fill stroke markers"/><path fill="none" stroke="#000" stroke-miterlimit="10" stroke-opacity=".2" d="M 0 131.5 L 400 131.5" class="dcg-svg-minor-gridline" paint-order="fill stroke markers"/><path fill="none" stroke="#000" stroke-miterlimit="10" stroke-opacity=".2" d="M 0 93.5 L 400 93.5" class="dcg-svg-minor-gridline" paint-order="fill stroke markers"/><path fill="none" stroke="#000" stroke-miterlimit="10" stroke-opacity=".2" d="M 0 55.5 L 400 55.5" class="dcg-svg-minor-gridline" paint-order="fill stroke markers"/><path fill="none" stroke="#000" stroke-miterlimit="10" stroke-opacity=".2" d="M 0 17.5 L 400 17.5" class="dcg-svg-minor-gridline" paint-order="fill stroke markers"/><path fill="none" stroke="#000" stroke-miterlimit="10" stroke-opacity=".25" d="M 199.5 0 L 199.5 400" class="dcg-svg-major-gridline" paint-order="fill stroke markers"/><path fill="none" stroke="#000" stroke-miterlimit="10" stroke-opacity=".25" d="M 351.5 0 L 351.5 400" class="dcg-svg-major-gridline" paint-order="fill stroke markers"/><path fill="none" stroke="#000" stroke-miterlimit="10" stroke-opacity=".25" d="M 0 359.5 L 400 359.5" class="dcg-svg-major-gridline" paint-order="fill stroke markers"/><path fill="none" stroke="#000" stroke-miterlimit="10" stroke-opacity=".25" d="M 0 55.5 L 400 55.5" class="dcg-svg-major-gridline" paint-order="fill stroke markers"/></g></g><g id="axis-445c6cac"><g id="yaxis-445c6cac"><title>Y axis</title><g><path fill="none" stroke="#000" stroke-miterlimit="10" stroke-opacity=".9" stroke-width="1.5" d="M 47 0 L 47 400" class="dcg-svg-axis-line" paint-order="fill stroke markers"/></g></g><g id="xaxis-445c6cac"><title>X axis</title><g><path fill="none" stroke="#000" stroke-miterlimit="10" stroke-opacity=".9" stroke-width="1.5" d="M 0 207 L 400 207" class="dcg-svg-axis-line" paint-order="fill stroke markers"/></g></g><g><g class="dcg-svg-axis-value"><text x="38.544" y="223.168" fill="none" stroke="#fff" stroke-miterlimit="2" stroke-width="3" font-family="Arial" font-size="14" font-style="normal" font-weight="normal" text-anchor="middle" text-decoration="normal">0</text><text x="38.544" y="223.168" fill="#000" stroke="none" font-family="Arial" font-size="14" font-style="normal" font-weight="normal" text-anchor="middle" text-decoration="normal">0</text></g><g class="dcg-svg-axis-value"><text x="199.245" y="223.168" fill="none" stroke="#fff" stroke-miterlimit="2" stroke-width="3" font-family="Arial" font-size="14" font-style="normal" font-weight="normal" text-anchor="middle" text-decoration="normal">2</text><text x="199.245" y="223.168" fill="#000" stroke="none" font-family="Arial" font-size="14" font-style="normal" font-weight="normal" text-anchor="middle" text-decoration="normal">2</text></g><g class="dcg-svg-axis-value"><text x="351.053" y="223.168" fill="none" stroke="#fff" stroke-miterlimit="2" stroke-width="3" font-family="Arial" font-size="14" font-style="normal" font-weight="normal" text-anchor="middle" text-decoration="normal">4</text><text x="351.053" y="223.168" fill="#000" stroke="none" font-family="Arial" font-size="14" font-style="normal" font-weight="normal" text-anchor="middle" text-decoration="normal">4</text></g><g class="dcg-svg-axis-value"><text x="36.213" y="362.942" fill="none" stroke="#fff" stroke-miterlimit="2" stroke-width="3" font-family="Arial" font-size="14" font-style="normal" font-weight="normal" text-anchor="middle" text-decoration="normal">-2</text><text x="36.213" y="362.942" fill="#000" stroke="none" font-family="Arial" font-size="14" font-style="normal" font-weight="normal" text-anchor="middle" text-decoration="normal">-2</text></g><g class="dcg-svg-axis-value"><text x="38.544" y="59.394" fill="none" stroke="#fff" stroke-miterlimit="2" stroke-width="3" font-family="Arial" font-size="14" font-style="normal" font-weight="normal" text-anchor="middle" text-decoration="normal">2</text><text x="38.544" y="59.394" fill="#000" stroke="none" font-family="Arial" font-size="14" font-style="normal" font-weight="normal" text-anchor="middle" text-decoration="normal">2</text></g></g></g></g><g id="expressions-445c6cac"><g id="sketch-445c6cac"><title>表达式3</title><path fill="#c74440" fill-opacity=".4" stroke="none" paint-order="stroke fill markers"/><g><path fill="none" stroke="#c74440" stroke-linecap="round" stroke-linejoin="round" stroke-miterlimit="10" stroke-width="2.5" d="M 47.436888788787 169.41673955163301 L 47.436888788787 169.41673955163301 L 47.753906250000036 171.47000437939676 L 48.535156250000036 175.16569198015486 L 49.70703125000004 179.65194648468727 L 51.17187500000004 184.39712919838806 L 52.92968750000004 189.3293495731284 L 54.882812500000036 194.1451018301216 L 57.12890625000003 199.0499229663613 L 59.570312500000036 203.7891810303204 L 62.20703125000004 208.35486163687293 L 65.13671875000004 212.87629681992186 L 68.26171875000003 217.16414276954885 L 71.58203125000004 221.20582689055166 L 75.00000000000003 224.88864762909046 L 78.41796875000003 228.14662458177122 L 81.93359375000003 231.1039655060745 L 85.44921875000003 233.70247989556597 L 89.06250000000003 236.03422330829713 L 92.77343750000004 238.10241539875662 L 96.48437500000003 239.86658364994867 L 100.29296875000003 241.38520030018762 L 104.19921875000003 242.65766502074723 L 108.20312500000003 243.6829543113127 L 112.30468750000003 244.45970655386674 L 116.50390625000003 244.98628883382372 L 120.80078125000004 245.26084997174502 L 125.19531250000003 245.28136299070485 L 129.78515625000006 245.03776136414604 L 134.47265625000006 244.52495398768895 L 139.25781250000006 243.741090741512 L 144.23828125000006 242.6605061400333 L 149.41406250000006 241.2661470883407 L 154.78515625000003 239.54153671971872 L 160.25390625000003 237.5094854862008 L 165.91796875000003 235.12550583358447 L 171.77734375000006 232.3744874020763 L 177.92968750000003 229.1889335016446 L 184.27734375000003 225.5983310750632 L 190.82031250000003 221.58917029883764 L 197.65625000000003 217.08174185360082 L 204.78515625000003 212.0499458453288 L 212.10937500000003 206.54400787531955 L 219.72656250000003 200.47242685001237 L 227.63671875000003 193.81103925657916 L 235.83984375000003 186.53633478067945 L 244.3359375 178.625447183189 L 253.22265625000003 169.95878787472856 L 262.40234375 160.60361354750142 L 271.97265625 150.43318336877348 L 281.93359375 139.41461894078395 L 292.28515625 127.51582812659949 L 303.02734375 114.7055115359098 L 314.16015625 100.95316191943623 L 325.68359375 86.22905785570413 L 337.6953125 70.37331218333483 L 350.09765625 53.480539752548026 L 362.79296875 35.66249308680287 L 375.68359375 17.047473485453565 L 388.8671875 -2.5140976904460786 L 390.832292361017 -5.5" class="dcg-svg-curve" paint-order="fill stroke markers"/></g></g><g id="sketch-445c6cac"><title>表达式4</title><path fill="#2d70b3" fill-opacity=".4" stroke="none" paint-order="stroke fill markers"/><g><path fill="none" stroke="#2d70b3" stroke-linecap="round" stroke-linejoin="round" stroke-miterlimit="10" stroke-width="2.5" d="M 47.436888788787 207.36028322031802 L 47.436888788787 207.36028322031802 L 52.92968750000004 212.653154289332 L 58.300781250000036 217.44446299307577 L 63.574218750000036 221.7789751544202 L 68.75000000000004 225.67704023237602 L 73.82812500000004 229.15863084412044 L 78.80859375000004 232.2433427649971 L 83.69140625000004 234.95039492851615 L 88.47656250000004 237.29862942635418 L 93.16406250000004 239.30651150835428 L 97.85156250000003 241.0249790622018 L 102.44140625000004 242.42721207755739 L 106.93359375000004 243.53092212059713 L 111.42578125000003 244.36883305705226 L 115.91796875000003 244.94094488692284 L 120.41015625000004 245.24725761020883 L 124.90234375000003 245.28777122691025 L 129.39453125000003 245.06248573702706 L 133.88671875000003 244.57140114055932 L 138.37890625000003 243.814517437507 L 142.87109375 242.7918346278701 L 147.36328125000003 241.5033527116486 L 151.95312500000006 239.91233104325943 L 156.54296875000003 238.04382817144622 L 161.23046875000003 235.84917012589733 L 166.01562500000003 233.31026849860322 L 170.80078125000006 230.46976779053898 L 175.68359375000003 227.26040316760546 L 180.66406250000003 223.663332538126 L 185.74218750000003 219.65933696859054 L 191.01562500000003 215.14183446026803 L 196.38671875000006 210.1641466994169 L 201.85546875000003 204.70554738519303 L 207.51953125000003 198.63671839490883 L 213.28125000000003 192.02969789255496 L 219.23828125000003 184.73896355660207 L 225.39062500000003 176.71854068335927 L 231.64062500000003 168.06031444004984 L 237.890625 158.8875734800247 L 244.23828125 149.04487198013817 L 250.58593750000003 138.67145156469405 L 256.93359375 127.76731223369231 L 263.37890625 116.15238783086332 L 269.82421875 103.99028908574577 L 276.3671875 91.0842431874501 L 282.91015625 77.61431629224592 L 289.55078125 63.36677770673484 L 296.19140625 48.538400241806386 L 302.9296875 32.898244093663976 L 309.765625 16.42030717579391 L 316.6015625 -0.6731380701783394 L 318.4643454494506 -5.5" class="dcg-svg-curve" paint-order="fill stroke markers"/></g></g></g></g></svg>

<svg xmlns="http://www.w3.org/2000/svg" width="800" height="800"><g transform="scale(2)"><path fill="#fff" class="dcg-svg-background" d="M0 0h400v400H0z"/><path fill="none" stroke="#000" stroke-miterlimit="10" stroke-opacity="0.2" d="M9.5 0v400m76-400v400m38-400v400m38-400v400m38-400v400m38-400v400m38-400v400m38-400v400m38-400v400m38-400v400M0 397.5h400m-400-38h400m-400-38h400m-400-38h400m-400-38h400m-400-76h400m-400-38h400M0 93.5h400M0 55.5h400M0 17.5h400" class="dcg-svg-minor-gridline" paint-order="fill stroke markers"/><path fill="none" stroke="#000" stroke-miterlimit="10" stroke-opacity="0.25" d="M199.5 0v400m152-400v400M0 359.5h400M0 55.5h400" class="dcg-svg-major-gridline" paint-order="fill stroke markers"/><path fill="none" stroke="#000" stroke-miterlimit="10" stroke-opacity="0.9" stroke-width="1.5" d="M47 0v400M0 207h400" class="dcg-svg-axis-line" paint-order="fill stroke markers"/><g class="dcg-svg-axis-value"><text x="38.54" y="223.17" fill="none" stroke="#fff" stroke-miterlimit="2" stroke-width="3" font-family="Arial" font-size="14" text-anchor="middle" text-decoration="normal">0</text><text x="38.54" y="223.17" font-family="Arial" font-size="14" text-anchor="middle" text-decoration="normal">0</text></g><g class="dcg-svg-axis-value"><text x="199.25" y="223.17" fill="none" stroke="#fff" stroke-miterlimit="2" stroke-width="3" font-family="Arial" font-size="14" text-anchor="middle" text-decoration="normal">2</text><text x="199.25" y="223.17" font-family="Arial" font-size="14" text-anchor="middle" text-decoration="normal">2</text></g><g class="dcg-svg-axis-value"><text x="351.05" y="223.17" fill="none" stroke="#fff" stroke-miterlimit="2" stroke-width="3" font-family="Arial" font-size="14" text-anchor="middle" text-decoration="normal">4</text><text x="351.05" y="223.17" font-family="Arial" font-size="14" text-anchor="middle" text-decoration="normal">4</text></g><g class="dcg-svg-axis-value"><text x="36.21" y="362.94" fill="none" stroke="#fff" stroke-miterlimit="2" stroke-width="3" font-family="Arial" font-size="14" text-anchor="middle" text-decoration="normal">-2</text><text x="36.21" y="362.94" font-family="Arial" font-size="14" text-anchor="middle" text-decoration="normal">-2</text></g><g class="dcg-svg-axis-value"><text x="38.54" y="59.39" fill="none" stroke="#fff" stroke-miterlimit="2" stroke-width="3" font-family="Arial" font-size="14" text-anchor="middle" text-decoration="normal">2</text><text x="38.54" y="59.39" font-family="Arial" font-size="14" text-anchor="middle" text-decoration="normal">2</text></g><path fill="none" stroke="#c74440" stroke-linecap="round" stroke-linejoin="round" stroke-miterlimit="10" stroke-width="2.5" d="m47.437 169.417.317 2.053.781 3.696 1.172 4.486 1.465 4.745 1.758 4.932 1.953 4.816 2.246 4.905 2.441 4.74 2.637 4.565 2.93 4.521 3.125 4.288 3.32 4.042L75 224.889l3.418 3.258 3.516 2.957 3.515 2.598 3.614 2.332 3.71 2.068 3.711 1.765 3.809 1.518 3.906 1.273 4.004 1.025 4.102.777 4.199.526 4.297.275 4.394.02 4.59-.243 4.688-.513 4.785-.784 4.98-1.08 5.176-1.395 5.371-1.724 5.469-2.033 5.664-2.383 5.86-2.752 6.152-3.185 6.347-3.59 6.543-4.01 6.836-4.507 7.13-5.032 7.323-5.506 7.618-6.072 7.91-6.661 8.203-7.275 8.496-7.91 8.887-8.667 9.18-9.355 9.57-10.17 9.96-11.02 10.352-11.898 10.742-12.81 11.133-13.753 11.524-14.724 12.011-15.856 12.403-16.892 12.695-17.819 12.89-18.615 13.184-19.561 1.965-2.986" class="dcg-svg-curve" paint-order="fill stroke markers"/><path fill="none" stroke="#2d70b3" stroke-linecap="round" stroke-linejoin="round" stroke-miterlimit="10" stroke-width="2.5" d="m47.437 207.36 5.493 5.293 5.37 4.791 5.274 4.335 5.176 3.898 5.078 3.482 4.98 3.084 4.883 2.707 4.786 2.349 4.687 2.008 4.688 1.718 4.59 1.402 4.492 1.104 4.492.838 4.492.572 4.492.306 4.492.04 4.493-.225 4.492-.49 4.492-.757 4.492-1.023 4.492-1.289 4.59-1.59 4.59-1.87 4.687-2.194 4.786-2.539 4.785-2.84 4.883-3.21 4.98-3.597 5.078-4.004 5.274-4.517 5.37-4.978 5.47-5.458 5.664-6.07 5.761-6.606 5.957-7.291 6.153-8.02 6.25-8.659 6.25-9.172 6.347-9.843 6.348-10.374 6.348-10.904 6.445-11.615 6.445-12.162 6.543-12.906 6.543-13.47 6.64-14.247 6.641-14.829 6.739-15.64 6.836-16.478 6.836-17.093 1.862-4.827" class="dcg-svg-curve" paint-order="fill stroke markers"/></g></svg>
